X: 1
T:Lonely Banna Strand
M:6/8
L:1/4
K:D
 A| G F/2 D E/2| F G/2 A-F/4-A/4| G F/2 D D/2| D3/2- D/2 B| =c B/2 c A/2|\
 d =c/2 A-F/4-A/4| G G/2 =c B/2| A3/2- A/2 B| d =c/2 c A/2| d c/2 AF/4-A/4|\
 G G/2 =c B/2| A3/2- A/2F/2 A/2| G F/2 D E/2| F- G/2 AF/4-A/4| G F/2 D D/2|\
 D3/2- D/2||

